X: 11060
T: MARILYN'S JIG
C: Bob McQuillen 5 May 94
B: Bob's Note Book 11 #60
R: jig
Z: 2020 John Chambers <jc:trillian.mit.edu>
M: 6/8
L: 1/8
K: D
A \
| dBd AFA | dfa a2g | faf dfd | Bed cBA |\
| dBd AFA | dfa a2g | fdB Aag | fdd d2 :|
|: f \
| afa A2a | fdc def | gag fed | cAA A2A |\
| BGB AFA | Bcd ecA | agf gec | edd d2 :|
%%begintext align
%% Marilyn Weir lives here in Peterborough and she
%% likes to dance so much that I wrote her this
%% tune to dance to - I hope you like it, Marilyn!
%% love, MAC
%%endtext
%%text P.S. - Try this on your flute, OK!?  :-)

%%sep 1 1 500

%%sep 1 1 500

